X: 1
T: Lost And Found
R: jig
M: 6/8
L: 1/8
K: Gmaj
|:~G3 dGG|edB dBA|~G3 deg|edB dBA|
~G3 dGG|edB def|gfe dBA|Bee dBA:|
|:~g3 bge|~f3 afd|~g3 bge|edB GBd|
~g3 bge|~f3 aga|bag agf|efg edB:|


Tune 1160	Setting 14427

